X:45
T:The Rat in the Wall
M:6/8
L:1/8
R:Jig
C:Gris Sanderson
Q:400
N:I wrote this 3-part jig when I was staying in a house in 
N:Brittany. It was a very old house with lots of nooks and 
N:crannies. One evening as we were sitting around the fire 
N:someone spotted a large rat peering out of a hole beside the 
N:mantelpiece. It disappeared for a second, then re-emerged in a 
N:similar location on the other side of the fire before vanishing. 
N:We never saw it again, but we did hear it scuttling around 
N:inside the walls.
K:Ador
Aef eAA|fAA gAf|eAa ged|BGG dGB|
A2a ged|fAA gAf|eAa ged|e2g ~gfg:|
|:aeg dec|dAc GAE|GDE CDA,|CG,A, C2^D|
EG^G Ac^c|dE^c BEB|dEc BEB|Bd_e =eg^g:|
|:aeb c'2b|aeba3|=fef~f3|gfg~g3|
|1aeb aeb|aeb a2e|dEc BEB|Bd_e =eg^g:|
|2ae be c'e|d'e c'e be|a z2z3|ged cAG||
